assets/img/braze_icons/certificate-02.svg

<svg fill="none" height="24" viewBox="0 0 24 24" width="24" xmlns="http://www.w3.org/2000/svg"><path clip-rule="evenodd" d="m5 1c-1.75335 0-3 1.54435-3 3.22222v15.55558c0 1.6779 1.24665 3.2222 3 3.2222h14c1.7534 0 3-1.5443 3-3.2222v-15.55558c0-1.67787-1.2466-3.22222-3-3.22222zm2 13c-.55228 0-1 .4477-1 1s.44772 1 1 1h10c.5523 0 1-.4477 1-1s-.4477-1-1-1zm2 3.5c-.55228 0-1 .4477-1 1s.44772 1 1 1h6c.5523 0 1-.4477 1-1s-.4477-1-1-1zm.25414-11.56333c.87676-.71346 2.04366-.50387 2.74346.27527.6998-.77914 1.8516-.98122 2.7435-.27527.8918.70595 1.0002 1.90632.3116 2.75013-.3887.47639-1.3123 1.31153-2.0429 1.9485-.3465.3021-.5197.4532-.7293.515-.1787.0527-.3871.0527-.5658 0-.2096-.0618-.3828-.2129-.7293-.515-.7306-.63697-1.65421-1.47211-2.04293-1.9485-.68853-.84381-.56509-2.03667.31167-2.75013z" fill="#801ed7" fill-rule="evenodd"/></svg>

<svg width="24" height="24" viewBox="0 0 24 24" fill="none" xmlns="http://www.w3.org/2000/svg">
<path fill-rule="evenodd" clip-rule="evenodd" d="M5 1C3.24665 1 2 2.54435 2 4.22222V19.7778C2 21.4557 3.24665 23 5 23H19C20.7534 23 22 21.4557 22 19.7778V4.22222C22 2.54435 20.7534 1 19 1H5ZM7 14C6.44772 14 6 14.4477 6 15C6 15.5523 6.44772 16 7 16H17C17.5523 16 18 15.5523 18 15C18 14.4477 17.5523 14 17 14H7ZM9 17.5C8.44772 17.5 8 17.9477 8 18.5C8 19.0523 8.44772 19.5 9 19.5H15C15.5523 19.5 16 19.0523 16 18.5C16 17.9477 15.5523 17.5 15 17.5H9ZM9.25414 5.93667C10.1309 5.22321 11.2978 5.4328 11.9976 6.21194C12.6974 5.4328 13.8492 5.23072 14.7411 5.93667C15.6329 6.64262 15.7413 7.84299 15.0527 8.6868C14.664 9.16319 13.7404 9.99833 13.0098 10.6353C12.6633 10.9374 12.4901 11.0885 12.2805 11.1503C12.1018 11.203 11.8934 11.203 11.7147 11.1503C11.5051 11.0885 11.3319 10.9374 10.9854 10.6353C10.2548 9.99833 9.33119 9.16319 8.94247 8.6868C8.25394 7.84299 8.37738 6.65013 9.25414 5.93667Z" fill="#801ED7"/>
</svg>
